src/images/brand.svg

<svg height="36" viewBox="0 0 148 36" width="148" xmlns="http://www.w3.org/2000/svg"><path d="m91.7421 7.44488h3.1224v2.67792h.0806c.8259-.97201 1.8332-1.76546 2.9814-2.32087 1.1684-.55541 2.4375-.83312 3.7265-.83312 1.37-.01984 2.74.23803 4.009.73394 1.169.45623 2.216 1.15049 3.102 2.02328.867.89267 1.552 1.92407 1.995 3.07457.967 2.4796.967 5.2169 0 7.7163-.443 1.1307-1.128 2.182-1.974 3.0746-.847.8728-1.854 1.5472-2.982 2.0233-1.168.4959-2.417.7339-3.666.7339-1.551.0397-3.0622-.3372-4.4119-1.091-1.2691-.7141-2.1958-1.6067-2.78-2.658h-.0806v12.2389h-3.1224zm3.1224 9.20392c-.0201.9125.141 1.825.4633 2.6978.5842 1.6265 1.8332 2.9357 3.4448 3.6101 1.7524.7141 3.7264.7141 5.4794 0 1.591-.6942 2.84-2.0034 3.425-3.6101.604-1.7456.604-3.6499 0-5.3955-.585-1.6265-1.834-2.9357-3.425-3.6101-1.753-.71415-3.727-.71415-5.4794 0-1.6116.6744-2.8404 2.0034-3.4448 3.6101-.3223.853-.4633 1.7654-.4633 2.6977z"/><path d="m138.378 30.7578c-.325.794-.649 1.5086-.974 2.1438-.325.6153-.73 1.1711-1.217 1.6475-.487.4565-1.055.8337-1.684 1.0719-.771.258-1.582.397-2.393.3771-.467 0-.954-.0198-1.42-.0794-.487-.0595-.954-.1786-1.38-.397l.406-2.6797c.325.139.67.2184 1.014.2581.406.0397.812.0595 1.217.0595 1.015 0 1.765-.2779 2.252-.8337.548-.655.974-1.4093 1.258-2.2033l1.257-3.4538-7.809-18.53965h3.651l5.842 14.45055h.081l5.599-14.45055h3.407z"/><path d="m133.379 23.5137h-4.171c-.182 0-.323-.1416-.323-.3237v-8.3134c0-2.67-.604-4.6725-1.833-5.96704-1.229-1.31477-3.224-1.94182-5.984-1.94182h-11.908c.484.36409.947.74841 1.37 1.19341.464.48546.907 1.01137 1.269 1.57773h10.276c.927.1416 1.793.52592 2.499 1.13272.806.708 1.209 1.7193 1.209 3.0948v.5664h-1.209c-1.149 0-2.398.0606-3.768.1618-1.31.1011-2.599.3641-3.828.8091-1.129.4045-2.156 1.072-2.982 1.962-.806.89-1.209 2.1037-1.209 3.6612-.02.8293.181 1.6586.564 2.407.363.6877.866 1.2743 1.491 1.7396.665.4854 1.41.8495 2.196 1.072.887.2427 1.793.3641 2.7.3641 1.451 0 2.66-.3034 3.687-.9305.947-.5461 1.753-1.3147 2.358-2.225.181 1.78 1.672 3.1353 3.445 3.1353h5.48zm-9.047-1.1732c-.464.5259-1.048.9305-1.693 1.2136-.745.3237-1.551.4855-2.377.4653-1.169 0-2.156-.2428-2.942-.7484-.786-.4855-1.189-1.335-1.168-2.5082 0-1.2744.584-2.2048 1.752-2.7712 1.169-.5663 2.761-.8495 4.756-.8495h3.123v1.1934c-.021.7484-.162 1.4766-.403 2.1845-.222.6878-.585 1.2946-1.048 1.8205z"/><g fill="#c4ad6c"><path d="m6.40462 20.7215c.31187.6024.76928 1.1244 1.33064 1.5059.58215.4016 1.24745.7028 1.95435.8634.74849.1807 1.53859.2811 2.32859.2811.5822 0 1.1643-.0401 1.7465-.1205.6029-.0803 1.1851-.261 1.7464-.5019.5198-.241.998-.5823 1.3514-1.0241.3743-.4819.5614-1.0641.5406-1.6665.0208-.6626-.2287-1.2851-.7069-1.7469-.5406-.4819-1.1851-.8634-1.8712-1.1244-.8524-.3213-1.7256-.5823-2.6197-.7831-.9771-.2209-1.9751-.4819-2.97308-.7429-1.01877-.241-2.03753-.5622-3.01471-.9236-.9356-.3414-1.82962-.8233-2.64047-1.4056-1.70487-1.2449-2.661256-3.1925-2.598882-5.26066-.041583-1.24489.291072-2.46971.914802-3.57405.60294-1.00395 1.4138-1.86735 2.37018-2.52995.99798-.68269 2.14149-1.18466 3.32658-1.485845 1.20588-.321263 2.45338-.481895 3.70078-.481895 1.393 0 2.786.160632 4.1582.461817 1.2683.281105 2.4742.803163 3.5345 1.505923 1.0188.68268 1.8712 1.60632 2.4534 2.6705.6029 1.08427.894 2.3894.894 3.93548h-5.8839c-.0208-.68269-.2079-1.36537-.5198-1.98782-.2703-.50197-.6861-.92363-1.185-1.22482-.5198-.30118-1.0812-.52205-1.6841-.64252-.6861-.12048-1.3722-.20079-2.0791-.18071-.499 0-.9772.06023-1.4762.14055-.4782.10039-.91481.2811-1.33064.52205-.39503.24095-.72769.56221-.97718.92363-.27028.42166-.41581.92364-.39502 1.42561-.02079.44174.08316.88347.31186 1.26497.20792.32127.60294.62245 1.20588.90356.81086.34138 1.66329.62248 2.5157.82328 1.0604.261 2.4742.6224 4.1998 1.0441.5198.1004 1.2267.2811 2.1415.5421.9772.2811 1.892.7028 2.7236 1.2449.9356.6024 1.7465 1.3854 2.3494 2.3091.6653.9638.9772 2.1886.9772 3.6744.0208 1.1646-.2495 2.3292-.7277 3.3934-.499 1.0641-1.2474 1.9878-2.183 2.7106-1.0604.8032-2.2871 1.4056-3.5969 1.767-1.6217.4417-3.285.6626-4.9691.6425-1.4969 0-2.97309-.1807-4.42846-.5421-1.37222-.3213-2.64047-.9036-3.78398-1.7067-1.10193-.763-1.99595-1.7871-2.598887-2.9517-.644523-1.1846-.9563895-2.6102-.93559842-4.2567h5.86308542c.02079.8232.18712 1.6063.54056 2.3091z"/><path d="m24.9833 13.6253c.0792-1.2819.3764-2.3363.9309-3.184.5348-.82707 1.2281-1.53004 2.06-2.04693.8715-.53757 1.8222-.88906 2.8126-1.09581 1.0299-.20676 2.0995-.33082 3.1493-.33082.9705 0 1.941.06203 2.9116.20676.9309.12405 1.842.41351 2.6937.82703.7923.39284 1.4657.97176 1.9807 1.71608.515.72369.7725 1.69539.7725 2.89459v10.3379c0 .8683.0396 1.716.1584 2.5844.0991.8271.2773 1.4267.515 1.8402h-5.3082c-.0991-.3102-.1783-.6203-.2377-.9511s-.0991-.641-.1387-.9718c-.8121.8891-1.8222 1.53-2.9512 1.8815s-2.2976.5376-3.4662.5376c-.8517 0-1.7232-.1034-2.5353-.3515-.7527-.2068-1.4459-.5789-2.0599-1.0751-.5943-.4963-1.0696-1.1165-1.3865-1.8402-.3566-.827-.515-1.7367-.4952-2.6465 0-1.1371.1981-2.0675.5744-2.7912.3565-.703.8517-1.3026 1.4657-1.7574.6338-.4549 1.3271-.7857 2.06-.9718.7724-.2067 1.5449-.3928 2.3372-.5169.7922-.124 1.5647-.2274 2.3174-.3101.6734-.062 1.3667-.1861 2.0203-.3515.515-.1241.9903-.3515 1.4063-.6823.3565-.3101.5348-.8063.4753-1.2819.0198-.4755-.0792-.9717-.2773-1.4059-.1782-.3308-.4357-.6203-.7328-.8064-.3367-.2067-.6933-.3308-1.0696-.3928-.4357-.0621-.8715-.1034-1.3072-.1034-1.03 0-1.8421.2274-2.4363.6823s-.9309 1.2199-1.03 2.3157zm12.0822 4.0318c-.2376.2274-.5149.3721-.8318.4755-.3566.1241-.7131.2275-1.0696.2895-.3764.0827-.7725.1447-1.1884.1861-.416.0413-.8319.124-1.2479.186-.3961.0828-.7724.1861-1.1686.3102-.3565.124-.6932.2894-.9903.5169-.2773.2274-.515.4962-.6735.827-.1782.3928-.2773.827-.2575 1.2612-.0198.4342.0793.8477.2575 1.2406.1585.3308.3962.5996.6933.7856.3169.2068.6734.3515 1.0299.4136.3962.0827.8121.124 1.2083.124 1.0299 0 1.8222-.1861 2.3966-.5376.515-.3101.9507-.7443 1.2478-1.2819.2575-.4755.4358-.9924.4952-1.53.0594-.4135.0792-.827.099-1.2198z"/><path d="m44.1268 10.9129v-3.55722h3.2553v-1.48721c0-1.72839.5563-3.13521 1.6483-4.22048 1.092-1.085261 2.7609-1.64799 4.986-1.64799.4739 0 .9684.0200966 1.4629.0602916.4945.0401954.9683.0602924 1.4216.1004874v3.959211c-.6593-.08039-1.3186-.12059-1.9985-.12059-.7417 0-1.2774.16078-1.5865.50244-.309.34166-.4739.90439-.4739 1.70829v1.16565h3.7499v3.55722h-3.7499v15.7766h-5.4599v-15.7766h-3.2553z"/><path d="m62.7747 7.48674v3.57306h.075c.2251-.5988.5441-1.15772.938-1.65676.394-.49904.8443-.93819 1.3508-1.29749.5065-.35931 1.0694-.63877 1.6322-.83839.5816-.19961 1.2007-.29942 1.8198-.29942.3752 0 .7316.05989 1.0881.17966v4.9105c-.2251-.0399-.5065-.0998-.8442-.1198-.319-.0399-.6191-.0598-.9381-.0598-.7879-.02-1.5759.1397-2.3075.499-.6004.2994-1.1257.7585-1.5197 1.3174-.3939.5789-.6753 1.2377-.8254 1.9563-.1689.7984-.2439 1.5969-.2439 2.4153v8.6433h-4.9341v-19.2029h4.709z"/><path d="m71.4541 13.6253c.0791-1.2819.3759-2.3363.9299-3.184.5342-.82707 1.2267-1.53004 2.0577-2.04693.8706-.51689 1.8203-.88906 2.8096-1.09581 1.0289-.20676 2.0973-.33082 3.146-.33082.9695 0 1.939.06203 2.9085.20676.9299.12405 1.8401.41351 2.6909.82703.7914.39284 1.4641.97176 1.9785 1.71608.5145.72369.7717 1.69539.7717 2.89459v10.3379c0 .8683.0396 1.716.1583 2.5844.0989.8271.277 1.4267.5144 1.8402h-5.3224c-.0989-.3102-.178-.6203-.2374-.9511s-.0989-.641-.1385-.9718c-.8112.8891-1.8203 1.53-2.9481 1.8815s-2.2952.5376-3.4625.5376c-.8508 0-1.7214-.1034-2.5326-.3515-.7519-.2068-1.4444-.5789-2.0577-1.0751-.5936-.4963-1.0685-1.1165-1.3851-1.8402-.3561-.827-.5144-1.7367-.4946-2.6465 0-1.1371.1979-2.0675.5738-2.7912.3561-.703.8508-1.3026 1.4641-1.7574.6332-.4549 1.3257-.7857 2.0578-.9718.7716-.2067 1.5433-.3928 2.3347-.5169.7914-.124 1.5631-.2274 2.3149-.3101.6728-.062 1.3653-.1861 2.0182-.3515.5144-.1241.9893-.3515 1.4048-.6823.3561-.3101.5342-.8063.4749-1.2819.0198-.4755-.0792-.9717-.277-1.4059-.1781-.3308-.4353-.6203-.7321-.8064-.3364-.2067-.6925-.3308-1.0684-.3928-.4353-.0621-.8706-.1034-1.3059-.1034-1.0289 0-1.8401.2274-2.4337.6823s-.9299 1.2199-1.0288 2.3157zm12.0693 4.0318c-.2374.2274-.5144.3721-.831.4755-.3561.1241-.7123.2275-1.0684.2895-.3759.0827-.7717.1447-1.1872.1861-.4155.0413-.831.124-1.2465.186-.3957.0828-.7716.1861-1.1475.3102-.3562.124-.6926.2894-.9893.5169-.277.2274-.5145.4962-.6728.827-.178.3928-.277.827-.2572 1.2612-.0198.4342.0792.8477.2572 1.2406.1583.3308.3958.5996.6925.7856.3166.2068.6728.3515 1.0289.4136.3957.0827.8112.124 1.207.124 1.0288 0 1.8202-.1861 2.394-.5376.5145-.3101.9497-.7443 1.2465-1.2819.2572-.4755.4353-.9924.4947-1.53.0593-.4135.0791-.827.0989-1.2198z"/></g></svg>

<svg width="148" height="36" viewBox="0 0 148 36" xmlns="http://www.w3.org/2000/svg">
<path d="M91.7421 7.44488H94.8645V10.1228H94.9451C95.771 9.15079 96.7783 8.35734 97.9265 7.80193C99.0949 7.24652 100.364 6.96881 101.653 6.96881C103.023 6.94897 104.393 7.20684 105.662 7.70275C106.831 8.15898 107.878 8.85324 108.764 9.72603C109.631 10.6187 110.316 11.6501 110.759 12.8006C111.726 15.2802 111.726 18.0175 110.759 20.5169C110.316 21.6476 109.631 22.6989 108.785 23.5915C107.938 24.4643 106.931 25.1387 105.803 25.6148C104.635 26.1107 103.386 26.3487 102.137 26.3487C100.586 26.3884 99.0748 26.0115 97.7251 25.2577C96.456 24.5436 95.5293 23.651 94.9451 22.5997H94.8645V34.8386H91.7421V7.44488ZM94.8645 16.6488C94.8444 17.5613 95.0055 18.4738 95.3278 19.3466C95.912 20.9731 97.161 22.2823 98.7726 22.9567C100.525 23.6708 102.499 23.6708 104.252 22.9567C105.843 22.2625 107.092 20.9533 107.677 19.3466C108.281 17.601 108.281 15.6967 107.677 13.9511C107.092 12.3246 105.843 11.0154 104.252 10.341C102.499 9.62685 100.525 9.62685 98.7726 10.341C97.161 11.0154 95.9322 12.3444 95.3278 13.9511C95.0055 14.8041 94.8645 15.7165 94.8645 16.6488Z"/>
<path d="M138.378 30.7578C138.053 31.5518 137.729 32.2664 137.404 32.9016C137.079 33.5169 136.674 34.0727 136.187 34.5491C135.7 35.0056 135.132 35.3828 134.503 35.621C133.732 35.879 132.921 36.018 132.11 35.9981C131.643 35.9981 131.156 35.9783 130.69 35.9187C130.203 35.8592 129.736 35.7401 129.31 35.5217L129.716 32.842C130.041 32.981 130.386 33.0604 130.73 33.1001C131.136 33.1398 131.542 33.1596 131.947 33.1596C132.962 33.1596 133.712 32.8817 134.199 32.3259C134.747 31.6709 135.173 30.9166 135.457 30.1226L136.714 26.6688L128.905 8.12915H132.556L138.398 22.5797H138.479L144.078 8.12915H147.485L138.378 30.7578Z"/>
<path d="M133.379 23.5137H129.208C129.026 23.5137 128.885 23.3721 128.885 23.19V14.8766C128.885 12.2066 128.281 10.2041 127.052 8.90956C125.823 7.59479 123.828 6.96774 121.068 6.96774H109.16C109.644 7.33183 110.107 7.71615 110.53 8.16115C110.994 8.64661 111.437 9.17252 111.799 9.73888H122.075C123.002 9.88048 123.868 10.2648 124.574 10.8716C125.38 11.5796 125.783 12.5909 125.783 13.9664V14.5328H124.574C123.425 14.5328 122.176 14.5934 120.806 14.6946C119.496 14.7957 118.207 15.0587 116.978 15.5037C115.849 15.9082 114.822 16.5757 113.996 17.4657C113.19 18.3557 112.787 19.5694 112.787 21.1269C112.767 21.9562 112.968 22.7855 113.351 23.5339C113.714 24.2216 114.217 24.8082 114.842 25.2735C115.507 25.7589 116.252 26.123 117.038 26.3455C117.925 26.5882 118.831 26.7096 119.738 26.7096C121.189 26.7096 122.398 26.4062 123.425 25.7791C124.372 25.233 125.178 24.4644 125.783 23.5541C125.964 25.3341 127.455 26.6894 129.228 26.6894H134.708L133.379 23.5137ZM124.332 22.3405C123.868 22.8664 123.284 23.271 122.639 23.5541C121.894 23.8778 121.088 24.0396 120.262 24.0194C119.093 24.0194 118.106 23.7766 117.32 23.271C116.534 22.7855 116.131 21.936 116.152 20.7628C116.152 19.4884 116.736 18.558 117.904 17.9916C119.073 17.4253 120.665 17.1421 122.66 17.1421H125.783V18.3355C125.762 19.0839 125.621 19.8121 125.38 20.52C125.158 21.2078 124.795 21.8146 124.332 22.3405Z"/>
<path d="M6.40462 20.7215C6.71649 21.3239 7.1739 21.8459 7.73526 22.2274C8.31741 22.629 8.98271 22.9302 9.68961 23.0908C10.4381 23.2715 11.2282 23.3719 12.0182 23.3719C12.6004 23.3719 13.1825 23.3318 13.7647 23.2514C14.3676 23.1711 14.9498 22.9904 15.5111 22.7495C16.0309 22.5085 16.5091 22.1672 16.8625 21.7254C17.2368 21.2435 17.4239 20.6613 17.4031 20.0589C17.4239 19.3963 17.1744 18.7738 16.6962 18.312C16.1556 17.8301 15.5111 17.4486 14.825 17.1876C13.9726 16.8663 13.0994 16.6053 12.2053 16.4045C11.2282 16.1836 10.2302 15.9226 9.23222 15.6616C8.21345 15.4206 7.19469 15.0994 6.21751 14.738C5.28191 14.3966 4.38789 13.9147 3.57704 13.3324C1.87217 12.0875 0.915784 10.1399 0.978158 8.07174C0.936575 6.82685 1.26923 5.60203 1.89296 4.49769C2.4959 3.49374 3.30676 2.63034 4.26314 1.96774C5.26112 1.28505 6.40463 0.78308 7.58972 0.481895C8.7956 0.160632 10.0431 0 11.2905 0C12.6835 0 14.0765 0.160632 15.4487 0.461817C16.717 0.742922 17.9229 1.26498 18.9832 1.96774C20.002 2.65042 20.8544 3.57406 21.4366 4.63824C22.0395 5.72251 22.3306 7.02764 22.3306 8.57372H16.4467C16.4259 7.89103 16.2388 7.20835 15.9269 6.5859C15.6566 6.08393 15.2408 5.66227 14.7419 5.36108C14.2221 5.0599 13.6607 4.83903 13.0578 4.71856C12.3717 4.59808 11.6856 4.51777 10.9787 4.53785C10.4797 4.53785 10.0015 4.59808 9.5025 4.6784C9.0243 4.77879 8.58769 4.9595 8.17186 5.20045C7.77683 5.4414 7.44417 5.76266 7.19468 6.12408C6.9244 6.54574 6.77887 7.04772 6.79966 7.54969C6.77887 7.99143 6.88282 8.43316 7.11152 8.81466C7.31944 9.13593 7.71446 9.43711 8.3174 9.71822C9.12826 10.0596 9.98069 10.3407 10.8331 10.5415C11.8935 10.8025 13.3073 11.1639 15.0329 11.5856C15.5527 11.686 16.2596 11.8667 17.1744 12.1277C18.1516 12.4088 19.0664 12.8305 19.898 13.3726C20.8336 13.975 21.6445 14.758 22.2474 15.6817C22.9127 16.6455 23.2246 17.8703 23.2246 19.3561C23.2454 20.5207 22.9751 21.6853 22.4969 22.7495C21.9979 23.8136 21.2495 24.7373 20.3139 25.4601C19.2535 26.2633 18.0268 26.8657 16.717 27.2271C15.0953 27.6688 13.432 27.8897 11.7479 27.8696C10.251 27.8696 8.77481 27.6889 7.31944 27.3275C5.94722 27.0062 4.67897 26.4239 3.53546 25.6208C2.43353 24.8578 1.53951 23.8337 0.936573 22.6691C0.29205 21.4845 -0.0198165 20.0589 0.000974582 18.4124H5.86406C5.88485 19.2356 6.05118 20.0187 6.40462 20.7215Z" fill="#C4AD6C"/>
<path d="M24.9833 13.6253C25.0625 12.3434 25.3597 11.289 25.9142 10.4413C26.449 9.61423 27.1423 8.91126 27.9742 8.39437C28.8457 7.8568 29.7964 7.50531 30.7868 7.29856C31.8167 7.0918 32.8863 6.96774 33.9361 6.96774C34.9066 6.96774 35.8771 7.02977 36.8477 7.1745C37.7786 7.29855 38.6897 7.58801 39.5414 8.00153C40.3337 8.39437 41.0071 8.97329 41.5221 9.71761C42.0371 10.4413 42.2946 11.413 42.2946 12.6122V22.9501C42.2946 23.8184 42.3342 24.6661 42.453 25.5345C42.5521 26.3616 42.7303 26.9612 42.968 27.3747H37.6598C37.5607 27.0645 37.4815 26.7544 37.4221 26.4236C37.3627 26.0928 37.323 25.7826 37.2834 25.4518C36.4713 26.3409 35.4612 26.9818 34.3322 27.3333C33.2032 27.6848 32.0346 27.8709 30.866 27.8709C30.0143 27.8709 29.1428 27.7675 28.3307 27.5194C27.578 27.3126 26.8848 26.9405 26.2708 26.4443C25.6765 25.948 25.2012 25.3278 24.8843 24.6041C24.5277 23.7771 24.3693 22.8674 24.3891 21.9576C24.3891 20.8205 24.5872 19.8901 24.9635 19.1664C25.32 18.4634 25.8152 17.8638 26.4292 17.409C27.063 16.9541 27.7563 16.6233 28.4892 16.4372C29.2616 16.2305 30.0341 16.0444 30.8264 15.9203C31.6186 15.7963 32.3911 15.6929 33.1438 15.6102C33.8172 15.5482 34.5105 15.4241 35.1641 15.2587C35.6791 15.1346 36.1544 14.9072 36.5704 14.5764C36.9269 14.2663 37.1052 13.7701 37.0457 13.2945C37.0655 12.819 36.9665 12.3228 36.7684 11.8886C36.5902 11.5578 36.3327 11.2683 36.0356 11.0822C35.6989 10.8755 35.3423 10.7514 34.966 10.6894C34.5303 10.6273 34.0945 10.586 33.6588 10.586C32.6288 10.586 31.8167 10.8134 31.2225 11.2683C30.6283 11.7232 30.2916 12.4882 30.1925 13.584L24.9833 13.6253ZM37.0655 17.6571C36.8279 17.8845 36.5506 18.0292 36.2337 18.1326C35.8771 18.2567 35.5206 18.3601 35.1641 18.4221C34.7877 18.5048 34.3916 18.5668 33.9757 18.6082C33.5597 18.6495 33.1438 18.7322 32.7278 18.7942C32.3317 18.877 31.9554 18.9803 31.5592 19.1044C31.2027 19.2284 30.866 19.3938 30.5689 19.6213C30.2916 19.8487 30.0539 20.1175 29.8954 20.4483C29.7172 20.8411 29.6181 21.2753 29.6379 21.7095C29.6181 22.1437 29.7172 22.5572 29.8954 22.9501C30.0539 23.2809 30.2916 23.5497 30.5887 23.7357C30.9056 23.9425 31.2621 24.0872 31.6186 24.1493C32.0148 24.232 32.4307 24.2733 32.8269 24.2733C33.8568 24.2733 34.6491 24.0872 35.2235 23.7357C35.7385 23.4256 36.1742 22.9914 36.4713 22.4538C36.7288 21.9783 36.9071 21.4614 36.9665 20.9238C37.0259 20.5103 37.0457 20.0968 37.0655 19.704V17.6571Z" fill="#C4AD6C"/>
<path d="M44.1268 10.9129V7.35568H47.3821V5.86847C47.3821 4.14008 47.9384 2.73326 49.0304 1.64799C50.1224 0.562729 51.7913 0 54.0164 0C54.4903 0 54.9848 0.0200966 55.4793 0.0602916C55.9738 0.100487 56.4476 0.120584 56.9009 0.160779V4.11999C56.2416 4.0396 55.5823 3.9994 54.9024 3.9994C54.1607 3.9994 53.625 4.16018 53.3159 4.50184C53.0069 4.8435 52.842 5.40623 52.842 6.21013V7.37578H56.5919V10.933H52.842V26.7096H47.3821V10.933H44.1268V10.9129Z" fill="#C4AD6C"/>
<path d="M62.7747 7.48674V11.0598H62.8497C63.0748 10.461 63.3938 9.90208 63.7877 9.40304C64.1817 8.904 64.632 8.46485 65.1385 8.10555C65.645 7.74624 66.2079 7.46678 66.7707 7.26716C67.3523 7.06755 67.9714 6.96774 68.5905 6.96774C68.9657 6.96774 69.3221 7.02763 69.6786 7.1474V12.0579C69.4535 12.018 69.1721 11.9581 68.8344 11.9381C68.5154 11.8982 68.2153 11.8783 67.8963 11.8783C67.1084 11.8583 66.3204 12.018 65.5888 12.3773C64.9884 12.6767 64.4631 13.1358 64.0691 13.6947C63.6752 14.2736 63.3938 14.9324 63.2437 15.651C63.0748 16.4494 62.9998 17.2479 62.9998 18.0663V26.7096H58.0657V7.5067H62.7747V7.48674Z" fill="#C4AD6C"/>
<path d="M71.4541 13.6253C71.5332 12.3434 71.83 11.289 72.384 10.4413C72.9182 9.61423 73.6107 8.91126 74.4417 8.39437C75.3123 7.87748 76.262 7.50531 77.2513 7.29856C78.2802 7.0918 79.3486 6.96774 80.3973 6.96774C81.3668 6.96774 82.3363 7.02977 83.3058 7.1745C84.2357 7.29855 85.1459 7.58801 85.9967 8.00153C86.7881 8.39437 87.4608 8.97329 87.9752 9.71761C88.4897 10.4413 88.7469 11.413 88.7469 12.6122V22.9501C88.7469 23.8184 88.7865 24.6661 88.9052 25.5345C89.0041 26.3616 89.1822 26.9612 89.4196 27.3747H84.0972C83.9983 27.0645 83.9192 26.7544 83.8598 26.4236C83.8004 26.0928 83.7609 25.7826 83.7213 25.4518C82.9101 26.3409 81.901 26.9818 80.7732 27.3333C79.6454 27.6848 78.478 27.8709 77.3107 27.8709C76.4599 27.8709 75.5893 27.7675 74.7781 27.5194C74.0262 27.3126 73.3337 26.9405 72.7204 26.4443C72.1268 25.948 71.6519 25.3278 71.3353 24.6041C70.9792 23.7771 70.8209 22.8674 70.8407 21.9576C70.8407 20.8205 71.0386 19.8901 71.4145 19.1664C71.7706 18.4634 72.2653 17.8638 72.8786 17.409C73.5118 16.9541 74.2043 16.6233 74.9364 16.4372C75.708 16.2305 76.4797 16.0444 77.2711 15.9203C78.0625 15.7963 78.8342 15.6929 79.586 15.6102C80.2588 15.5482 80.9513 15.4241 81.6042 15.2587C82.1186 15.1346 82.5935 14.9072 83.009 14.5764C83.3651 14.2663 83.5432 13.7701 83.4839 13.2945C83.5037 12.819 83.4047 12.3228 83.2069 11.8886C83.0288 11.5578 82.7716 11.2683 82.4748 11.0822C82.1384 10.8755 81.7823 10.7514 81.4064 10.6894C80.9711 10.6273 80.5358 10.586 80.1005 10.586C79.0716 10.586 78.2604 10.8134 77.6668 11.2683C77.0732 11.7232 76.7369 12.4882 76.638 13.584L71.4541 13.6253ZM83.5234 17.6571C83.286 17.8845 83.009 18.0292 82.6924 18.1326C82.3363 18.2567 81.9801 18.3601 81.624 18.4221C81.2481 18.5048 80.8523 18.5668 80.4368 18.6082C80.0213 18.6495 79.6058 18.7322 79.1903 18.7942C78.7946 18.877 78.4187 18.9803 78.0428 19.1044C77.6866 19.2284 77.3502 19.3938 77.0535 19.6213C76.7765 19.8487 76.539 20.1175 76.3807 20.4483C76.2027 20.8411 76.1037 21.2753 76.1235 21.7095C76.1037 22.1437 76.2027 22.5572 76.3807 22.9501C76.539 23.2809 76.7765 23.5497 77.0732 23.7357C77.3898 23.9425 77.746 24.0872 78.1021 24.1493C78.4978 24.232 78.9133 24.2733 79.3091 24.2733C80.3379 24.2733 81.1293 24.0872 81.7031 23.7357C82.2176 23.4256 82.6528 22.9914 82.9496 22.4538C83.2068 21.9783 83.3849 21.4614 83.4443 20.9238C83.5036 20.5103 83.5234 20.0968 83.5432 19.704L83.5234 17.6571Z" fill="#C4AD6C"/>
</svg>
